actions/48/go-first.svg

<?xml version="1.0" encoding="UTF-8" standalone="no"?>
<!-- Created with Inkscape (http://www.inkscape.org/) -->

<svg
   xmlns:svg="http://www.w3.org/2000/svg"
   xmlns="http://www.w3.org/2000/svg"
   xmlns:xlink="http://www.w3.org/1999/xlink"
   version="1.1"
   width="48"
   height="48"
   id="svg2482">
  <defs
     id="defs2484">
    <linearGradient
       x1="11.767765"
       y1="-4.4393449"
       x2="41.116112"
       y2="-7.0000062"
       id="linearGradient6723"
       xlink:href="#linearGradient5113"
       gradientUnits="userSpaceOnUse"
       gradientTransform="translate(0,47.00001)" />
    <linearGradient
       id="linearGradient3166">
      <stop
         id="stop3168"
         style="stop-color:#a7cc5c;stop-opacity:1"
         offset="0" />
      <stop
         id="stop3170"
         style="stop-color:#789e2d;stop-opacity:1"
         offset="1" />
    </linearGradient>
    <linearGradient
       x1="9.9999981"
       y1="41.5"
       x2="41.999996"
       y2="41.5"
       id="linearGradient3173"
       xlink:href="#linearGradient3166"
       gradientUnits="userSpaceOnUse" />
    <linearGradient
       id="linearGradient5113">
      <stop
         id="stop5115"
         style="stop-color:white;stop-opacity:1"
         offset="0" />
      <stop
         id="stop5117"
         style="stop-color:white;stop-opacity:0"
         offset="1" />
    </linearGradient>
    <linearGradient
       x1="16.067961"
       y1="11.133182"
       x2="37.73064"
       y2="42.793934"
       id="linearGradient5315"
       xlink:href="#linearGradient5113"
       gradientUnits="userSpaceOnUse"
       gradientTransform="matrix(1.004639,0,0,1,-4.037671,-0.05462481)" />
    <linearGradient
       id="linearGradient2264">
      <stop
         id="stop2266"
         style="stop-color:#d7e866;stop-opacity:1"
         offset="0" />
      <stop
         id="stop2268"
         style="stop-color:#8cab2a;stop-opacity:1"
         offset="1" />
    </linearGradient>
    <linearGradient
       x1="21.131361"
       y1="13.152157"
       x2="21.131361"
       y2="38.714657"
       id="linearGradient3172"
       xlink:href="#linearGradient2264"
       gradientUnits="userSpaceOnUse" />
    <linearGradient
       id="linearGradient5105">
      <stop
         id="stop5107"
         style="stop-color:black;stop-opacity:1"
         offset="0" />
      <stop
         id="stop5109"
         style="stop-color:black;stop-opacity:0"
         offset="1" />
    </linearGradient>
    <radialGradient
       cx="11.25"
       cy="19.03125"
       r="8.0625"
       fx="11.25"
       fy="19.03125"
       id="radialGradient4354"
       xlink:href="#linearGradient5105"
       gradientUnits="userSpaceOnUse"
       gradientTransform="matrix(1,0,0,0.282946,0,13.64644)" />
  </defs>
  <g
     id="layer1">
    <g
       transform="matrix(-1,0,0,1,47.000019,-2.9999963)"
       id="g2571"
       style="display:inline">
      <path
         d="m 19.3125,19.03125 a 8.0625,2.28125 0 1 1 -16.125,0 8.0625,2.28125 0 1 1 16.125,0 z"
         transform="matrix(-2.48062,0,0,2.410961,50.90698,-5.38361)"
         id="path4346"
         style="opacity:0.16292138;fill:url(#radialGradient4354);fill-opacity:1;fill-rule:nonzero;stroke:none;stroke-width:1;marker:none;visibility:visible;display:inline;overflow:visible" />
      <path
         d="m 19.502209,9.4374998 19.004144,16.5060242 -19.004144,16.423291 0,-7.869835 -14.9958391,0 0,-17.055132 14.9958391,0 0,-8.0043482 z"
         id="path4348"
         style="fill:url(#linearGradient3172);fill-opacity:1;fill-rule:nonzero;stroke:#548820;stroke-width:0.99999958;stroke-linecap:butt;stroke-linejoin:miter;stroke-miterlimit:4;stroke-opacity:1;stroke-dasharray:none;stroke-dashoffset:0;marker:none;visibility:visible;display:inline;overflow:visible" />
      <path
         d="m 20.573058,11.578557 16.516638,14.386273 -16.516638,14.199301 0,-6.738369 -15.0666831,0 0,-14.978334 15.0666831,0 0,-6.868871 z"
         id="path4360"
         style="opacity:0.35400008;fill:none;stroke:url(#linearGradient5315);stroke-width:0.99999958;stroke-linecap:butt;stroke-linejoin:miter;stroke-miterlimit:4;stroke-opacity:1;stroke-dasharray:none;stroke-dashoffset:0;marker:none;visibility:visible;display:inline;overflow:visible" />
      <rect
         width="33.000008"
         height="4.0000119"
         x="9.5"
         y="39.500008"
         transform="matrix(0,1,1,0,0,0)"
         id="rect4242"
         style="fill:#b3c360;fill-opacity:1;fill-rule:nonzero;stroke:#548820;stroke-width:0.99999982;stroke-linecap:butt;stroke-linejoin:miter;stroke-miterlimit:4;stroke-opacity:1;stroke-dasharray:none;stroke-dashoffset:0;marker:none;visibility:visible;display:inline;overflow:visible" />
      <rect
         width="31"
         height="2.0000019"
         x="10.499998"
         y="40.5"
         transform="matrix(0,1,1,0,0,0)"
         id="rect6697"
         style="opacity:0.35400008;fill:url(#linearGradient3173);fill-opacity:1;fill-rule:nonzero;stroke:url(#linearGradient6723);stroke-width:0.99999988;stroke-linecap:butt;stroke-linejoin:miter;stroke-miterlimit:4;stroke-opacity:1;stroke-dasharray:none;stroke-dashoffset:0;marker:none;visibility:visible;display:inline;overflow:visible" />
    </g>
  </g>
</svg>

<?xml version="1.0" encoding="UTF-8" standalone="no"?>
<!-- Created with Inkscape (http://www.inkscape.org/) -->
<svg
   xmlns:dc="http://purl.org/dc/elements/1.1/"
   xmlns:cc="http://creativecommons.org/ns#"
   xmlns:rdf="http://www.w3.org/1999/02/22-rdf-syntax-ns#"
   xmlns:svg="http://www.w3.org/2000/svg"
   xmlns="http://www.w3.org/2000/svg"
   xmlns:xlink="http://www.w3.org/1999/xlink"
   xmlns:sodipodi="http://sodipodi.sourceforge.net/DTD/sodipodi-0.dtd"
   xmlns:inkscape="http://www.inkscape.org/namespaces/inkscape"
   width="48px"
   height="48px"
   id="svg2482"
   sodipodi:version="0.32"
   inkscape:version="0.46"
   sodipodi:docname="go-first.svg"
   inkscape:output_extension="org.inkscape.output.svg.inkscape">
  <defs
     id="defs2484">
    <linearGradient
       gradientTransform="translate(0,47.00001)"
       gradientUnits="userSpaceOnUse"
       y2="-7.0000062"
       x2="41.116112"
       y1="-4.4393449"
       x1="11.767765"
       id="linearGradient6723"
       xlink:href="#linearGradient5113"
       inkscape:collect="always" />
    <linearGradient
       id="linearGradient3166">
      <stop
         id="stop3168"
         offset="0"
         style="stop-color:#a7cc5c;stop-opacity:1;" />
      <stop
         id="stop3170"
         offset="1"
         style="stop-color:#789e2d;stop-opacity:1;" />
    </linearGradient>
    <linearGradient
       gradientUnits="userSpaceOnUse"
       y2="41.5"
       x2="41.999996"
       y1="41.5"
       x1="9.9999981"
       id="linearGradient3173"
       xlink:href="#linearGradient3166"
       inkscape:collect="always" />
    <linearGradient
       id="linearGradient5113"
       inkscape:collect="always">
      <stop
         id="stop5115"
         offset="0"
         style="stop-color:white;stop-opacity:1;" />
      <stop
         id="stop5117"
         offset="1"
         style="stop-color:white;stop-opacity:0;" />
    </linearGradient>
    <linearGradient
       gradientTransform="matrix(1.004639,0,0,1,-4.037671,-5.462481e-2)"
       gradientUnits="userSpaceOnUse"
       y2="42.793934"
       x2="37.73064"
       y1="11.133182"
       x1="16.067961"
       id="linearGradient5315"
       xlink:href="#linearGradient5113"
       inkscape:collect="always" />
    <linearGradient
       id="linearGradient2264">
      <stop
         style="stop-color:#d7e866;stop-opacity:1;"
         offset="0"
         id="stop2266" />
      <stop
         style="stop-color:#8cab2a;stop-opacity:1;"
         offset="1"
         id="stop2268" />
    </linearGradient>
    <linearGradient
       gradientUnits="userSpaceOnUse"
       y2="38.714657"
       x2="21.131361"
       y1="13.152157"
       x1="21.131361"
       id="linearGradient3172"
       xlink:href="#linearGradient2264"
       inkscape:collect="always" />
    <linearGradient
       id="linearGradient5105"
       inkscape:collect="always">
      <stop
         id="stop5107"
         offset="0"
         style="stop-color:black;stop-opacity:1;" />
      <stop
         id="stop5109"
         offset="1"
         style="stop-color:black;stop-opacity:0;" />
    </linearGradient>
    <radialGradient
       r="8.0625"
       fy="19.03125"
       fx="11.25"
       cy="19.03125"
       cx="11.25"
       gradientTransform="matrix(1,0,0,0.282946,0,13.64644)"
       gradientUnits="userSpaceOnUse"
       id="radialGradient4354"
       xlink:href="#linearGradient5105"
       inkscape:collect="always" />
  </defs>
  <sodipodi:namedview
     id="base"
     pagecolor="#ffffff"
     bordercolor="#666666"
     borderopacity="1.0"
     inkscape:pageopacity="0.0"
     inkscape:pageshadow="2"
     inkscape:zoom="7"
     inkscape:cx="24"
     inkscape:cy="24"
     inkscape:current-layer="layer1"
     showgrid="true"
     inkscape:grid-bbox="true"
     inkscape:document-units="px"
     inkscape:window-width="640"
     inkscape:window-height="720"
     inkscape:window-x="0"
     inkscape:window-y="24" />
  <metadata
     id="metadata2487">
    <rdf:RDF>
      <cc:Work
         rdf:about="">
        <dc:format>image/svg+xml</dc:format>
        <dc:type
           rdf:resource="http://purl.org/dc/dcmitype/StillImage" />
      </cc:Work>
    </rdf:RDF>
  </metadata>
  <g
     id="layer1"
     inkscape:label="Layer 1"
     inkscape:groupmode="layer">
    <g
       style="display:inline"
       id="g2571"
       inkscape:label="Layer 1"
       transform="matrix(-1,0,0,1,47.000019,-2.9999963)">
      <path
         transform="matrix(-2.48062,0,0,2.410961,50.90698,-5.38361)"
         d="M 19.3125,19.03125 A 8.0625,2.28125 0 1 1 3.1875,19.03125 A 8.0625,2.28125 0 1 1 19.3125,19.03125 z"
         sodipodi:ry="2.28125"
         sodipodi:rx="8.0625"
         sodipodi:cy="19.03125"
         sodipodi:cx="11.25"
         id="path4346"
         style="opacity:0.16292138;fill:url(#radialGradient4354);fill-opacity:1;fill-rule:nonzero;stroke:none;stroke-width:1;stroke-linecap:butt;stroke-linejoin:miter;marker:none;marker-start:none;marker-mid:none;marker-end:none;stroke-miterlimit:4;stroke-dasharray:none;stroke-dashoffset:0;stroke-opacity:1;visibility:visible;display:inline;overflow:visible"
         sodipodi:type="arc" />
      <path
         sodipodi:nodetypes="cccccccc"
         id="path4348"
         d="M 19.502209,9.4374998 L 38.506353,25.943524 L 19.502209,42.366815 L 19.502209,34.49698 L 4.5063699,34.49698 L 4.5063699,17.441848 L 19.502209,17.441848 L 19.502209,9.4374998 z"
         style="opacity:1;fill:url(#linearGradient3172);fill-opacity:1;fill-rule:nonzero;stroke:#548820;stroke-width:0.99999958;stroke-linecap:butt;stroke-linejoin:miter;marker:none;marker-start:none;marker-mid:none;marker-end:none;stroke-miterlimit:4;stroke-dasharray:none;stroke-dashoffset:0;stroke-opacity:1;visibility:visible;display:inline;overflow:visible" />
      <path
         sodipodi:nodetypes="cccccccc"
         id="path4360"
         d="M 20.573058,11.578557 L 37.089696,25.96483 L 20.573058,40.164131 L 20.573058,33.425762 L 5.5063749,33.425762 L 5.5063749,18.447428 L 20.573058,18.447428 L 20.573058,11.578557 z"
         style="opacity:0.35400002;fill:none;fill-opacity:1;fill-rule:nonzero;stroke:url(#linearGradient5315);stroke-width:0.99999958;stroke-linecap:butt;stroke-linejoin:miter;marker:none;marker-start:none;marker-mid:none;marker-end:none;stroke-miterlimit:4;stroke-dasharray:none;stroke-dashoffset:0;stroke-opacity:1;visibility:visible;display:inline;overflow:visible" />
      <rect
         transform="matrix(0,1,1,0,0,0)"
         y="39.500008"
         x="9.5"
         height="4.0000119"
         width="33.000008"
         id="rect4242"
         style="fill:#b3c360;fill-opacity:1;fill-rule:nonzero;stroke:#548820;stroke-width:0.99999982;stroke-linecap:butt;stroke-linejoin:miter;marker:none;marker-start:none;marker-mid:none;marker-end:none;stroke-miterlimit:4;stroke-dasharray:none;stroke-dashoffset:0;stroke-opacity:1;visibility:visible;display:inline;overflow:visible" />
      <rect
         transform="matrix(0,1,1,0,0,0)"
         y="40.5"
         x="10.499998"
         height="2.0000019"
         width="31"
         id="rect6697"
         style="opacity:0.35400002;fill:url(#linearGradient3173);fill-opacity:1;fill-rule:nonzero;stroke:url(#linearGradient6723);stroke-width:0.99999988;stroke-linecap:butt;stroke-linejoin:miter;marker:none;marker-start:none;marker-mid:none;marker-end:none;stroke-miterlimit:4;stroke-dasharray:none;stroke-dashoffset:0;stroke-opacity:1;visibility:visible;display:inline;overflow:visible" />
    </g>
  </g>
</svg>
